third_party/noto/noto_2/emoji_u1f381.svg

<svg enable-background="new 0 0 128 128" viewBox="0 0 128 128" xmlns="http://www.w3.org/2000/svg"><radialGradient id="d" cx="102.25" cy="12.5" r="34.324" gradientTransform="matrix(-1 0 0 1.1051 204.04 -.4321)" gradientUnits="userSpaceOnUse"><stop stop-color="#FFEB3B" offset=".2562"/><stop stop-color="#FBC02D" offset="1"/></radialGradient><path d="m64.08 38.51s6.46 2.27 16.45 3.87c12.75 2.04 31.89 2.04 35.08-4.88 2.62-5.68-9.57-33.38-17.29-33.38-5.6 0-8.11 3.81-15.72 12.32s-18.52 22.07-18.52 22.07z" fill="url(#d)"/><path d="m78.29 31.12s11.3-15.84 17.77-20.64c3.18-2.35 6.31 0.81 4.09 4.34-2.12 3.4-21.86 16.3-21.86 16.3z" fill="#FBC02D"/><radialGradient id="c" cx="26.25" cy="12.5" r="34.324" gradientTransform="matrix(1 0 0 1.1051 0 -.4321)" gradientUnits="userSpaceOnUse"><stop stop-color="#FFEB3B" offset=".2562"/><stop stop-color="#FBC02D" offset="1"/></radialGradient><path d="m63.96 38.51s-6.46 2.27-16.45 3.87c-12.75 2.04-31.89 2.04-35.08-4.88-2.6-5.69 9.58-33.39 17.3-33.39 5.6 0 8.11 3.81 15.72 12.32s18.51 22.08 18.51 22.08z" fill="url(#c)"/><path d="m49.76 31.12s-11.3-15.84-17.77-20.64c-3.18-2.35-6.31 0.81-4.09 4.34 2.12 3.4 21.86 16.3 21.86 16.3z" fill="#FBC02D"/><g opacity=".2"><path d="m98.32 7.11c0.51 0 2.5 0.97 5.55 5.39 6.24 9.07 9.87 21.48 9.01 23.73-0.92 1.99-6.05 4.32-17.5 4.32-4.66 0-9.76-0.41-14.38-1.14-4.92-0.79-8.98-1.75-11.77-2.5 3.74-4.58 10.46-12.74 15.6-18.48 1.01-1.13 1.93-2.17 2.78-3.13 5.59-6.36 7.35-8.19 10.71-8.19m0-3c-5.6 0-8.11 3.81-15.72 12.32s-18.52 22.08-18.52 22.08 6.46 2.27 16.45 3.87c4.48 0.72 9.76 1.18 14.85 1.18 9.39 0 18.16-1.58 20.23-6.06 2.61-5.69-9.57-33.39-17.29-33.39z" fill="#424242"/></g><g opacity=".2"><path d="m29.73 7.11c3.36 0 5.12 1.83 10.71 8.18 0.85 0.96 1.77 2.01 2.78 3.13 5.14 5.74 11.86 13.9 15.6 18.48-2.79 0.75-6.85 1.71-11.77 2.5-4.62 0.74-9.72 1.14-14.38 1.14-11.45 0-16.58-2.33-17.5-4.31-0.86-2.26 2.76-14.68 9.01-23.74 3.04-4.41 5.04-5.38 5.55-5.38m0-3c-7.72 0-19.9 27.7-17.29 33.38 2.07 4.49 10.84 6.06 20.23 6.06 5.09 0 10.36-0.46 14.85-1.18 9.99-1.59 16.45-3.87 16.45-3.87s-10.9-13.57-18.51-22.08-10.13-12.31-15.73-12.31z" fill="#424242"/></g><path d="m64.08 24.25c-8.64 0-15.66 7.87-16.06 15.75h32.13c-0.41-7.88-7.44-15.75-16.07-15.75z" fill="#FBC02D"/><g opacity=".2"><path d="m64.08 27.25c5.89 0 10.78 4.68 12.46 9.75h-24.92c1.68-5.07 6.57-9.75 12.46-9.75m0-3c-8.64 0-15.66 7.87-16.06 15.75h32.13c-0.41-7.88-7.44-15.75-16.07-15.75z" fill="#424242"/></g><linearGradient id="b" x1="64" x2="64" y1="99.024" y2="40.759" gradientUnits="userSpaceOnUse"><stop stop-color="#2196F3" offset=".3754"/><stop stop-color="#1976D2" offset=".8273"/></linearGradient><polygon points="112.09 124.01 15.91 124.01 11.91 51.14 116.09 51.14" fill="url(#b)"/><g opacity=".2"><path d="m112.92 54.14-3.67 66.88h-90.5l-3.67-66.88h97.84m3.17-3h-104.18l4 72.88h96.19l3.99-72.88z" fill="#424242"/></g><path d="m121.89 59.42h-114.99c-0.37 0-0.7-0.23-0.81-0.56-2.57-7.47-2.5-15.55 0.19-22.98h115.61c2.61 7.44 2.68 15.49 0.19 22.98l-0.19 0.56z" fill="#2196F3"/><g opacity=".2"><path d="m119.69 38.88c1.62 5.77 1.62 11.77 0 17.54h-111.23c-1.66-5.72-1.66-11.83 0-17.54h111.23m2.2-3h-115.61c-2.7 7.43-2.76 15.51-0.19 22.98 0.12 0.34 0.44 0.56 0.81 0.56h114.99l0.19-0.57c2.49-7.48 2.42-15.53-0.19-22.97z" fill="#424242"/></g><linearGradient id="a" x1="50.861" x2="83.116" y1="58.264" y2="111.04" gradientUnits="userSpaceOnUse"><stop stop-color="#FFEB3B" offset=".252"/><stop stop-color="#FBC02D" offset="1"/></linearGradient><rect x="51.21" y="35.88" width="26" height="88.46" fill="url(#a)"/><g opacity=".2"><path d="m74.21 38.88v82.46h-20v-82.46h20m3-3h-26v88.46h26v-88.46z" fill="#424242"/></g></svg>

<svg width="128" height="128" style="enable-background:new 0 0 128 128;" xmlns="http://www.w3.org/2000/svg" xmlns:xlink="http://www.w3.org/1999/xlink">
  <g id="图层_3">
    <radialGradient id="SVGID_1_" cx="102.25" cy="12.5" gradientTransform="matrix(-1 0 0 1.1051 204.0436 -0.4321)" gradientUnits="userSpaceOnUse" r="34.3238">
      <stop offset="0.2562" style="stop-color:#FFEB3B"/>
      <stop offset="1" style="stop-color:#FBC02D"/>
    </radialGradient>
    <path d="M64.08,38.51c0,0,6.46,2.27,16.45,3.87c12.75,2.04,31.89,2.04,35.08-4.88 c2.62-5.68-9.57-33.38-17.29-33.38c-5.6,0-8.11,3.81-15.72,12.32S64.08,38.51,64.08,38.51z" style="fill:url(#SVGID_1_);"/>
    <path d="M78.29,31.12c0,0,11.3-15.84,17.77-20.64c3.18-2.35,6.31,0.81,4.09,4.34 C98.03,18.22,78.29,31.12,78.29,31.12z" style="fill:#FBC02D;"/>
    <radialGradient id="SVGID_3_" cx="26.25" cy="12.5" gradientTransform="matrix(1 0 0 1.1051 0 -0.4321)" gradientUnits="userSpaceOnUse" r="34.3238">
      <stop offset="0.2562" style="stop-color:#FFEB3B"/>
      <stop offset="1" style="stop-color:#FBC02D"/>
    </radialGradient>
    <path d="M63.96,38.51c0,0-6.46,2.27-16.45,3.87c-12.75,2.04-31.89,2.04-35.08-4.88 C9.83,31.81,22.01,4.11,29.73,4.11c5.6,0,8.11,3.81,15.72,12.32S63.96,38.51,63.96,38.51z" style="fill:url(#SVGID_3_);"/>
    <path d="M49.76,31.12c0,0-11.3-15.84-17.77-20.64c-3.18-2.35-6.31,0.81-4.09,4.34 C30.02,18.22,49.76,31.12,49.76,31.12z" style="fill:#FBC02D;"/>
    <g style="opacity:0.2;">
      <path d="M98.32,7.11c0.51,0,2.5,0.97,5.55,5.39c6.24,9.07,9.87,21.48,9.01,23.73 c-0.92,1.99-6.05,4.32-17.5,4.32c-4.66,0-9.76-0.41-14.38-1.14c-4.92-0.79-8.98-1.75-11.77-2.5c3.74-4.58,10.46-12.74,15.6-18.48 c1.01-1.13,1.93-2.17,2.78-3.13C93.2,8.94,94.96,7.11,98.32,7.11 M98.32,4.11c-5.6,0-8.11,3.81-15.72,12.32 S64.08,38.51,64.08,38.51s6.46,2.27,16.45,3.87c4.48,0.72,9.76,1.18,14.85,1.18c9.39,0,18.16-1.58,20.23-6.06 C118.22,31.81,106.04,4.11,98.32,4.11L98.32,4.11z" style="fill:#424242;"/>
    </g>
    <g style="opacity:0.2;">
      <path d="M29.73,7.11c3.36,0,5.12,1.83,10.71,8.18c0.85,0.96,1.77,2.01,2.78,3.13 c5.14,5.74,11.86,13.9,15.6,18.48c-2.79,0.75-6.85,1.71-11.77,2.5c-4.62,0.74-9.72,1.14-14.38,1.14c-11.45,0-16.58-2.33-17.5-4.31 c-0.86-2.26,2.76-14.68,9.01-23.74C27.22,8.08,29.22,7.11,29.73,7.11 M29.73,4.11c-7.72,0-19.9,27.7-17.29,33.38 c2.07,4.49,10.84,6.06,20.23,6.06c5.09,0,10.36-0.46,14.85-1.18c9.99-1.59,16.45-3.87,16.45-3.87s-10.9-13.57-18.51-22.08 S35.33,4.11,29.73,4.11L29.73,4.11z" style="fill:#424242;"/>
    </g>
    <path d="M64.08,24.25c-8.64,0-15.66,7.87-16.06,15.75h32.13C79.74,32.12,72.71,24.25,64.08,24.25z" style="fill:#FBC02D;"/>
    <g style="opacity:0.2;">
      <path d="M64.08,27.25c5.89,0,10.78,4.68,12.46,9.75H51.62C53.3,31.93,58.19,27.25,64.08,27.25 M64.08,24.25 c-8.64,0-15.66,7.87-16.06,15.75h32.13C79.74,32.12,72.71,24.25,64.08,24.25L64.08,24.25z" style="fill:#424242;"/>
    </g>
    <linearGradient id="SVGID_4_" gradientUnits="userSpaceOnUse" x1="64" x2="64" y1="99.0241" y2="40.7593">
      <stop offset="0.3754" style="stop-color:#2196F3"/>
      <stop offset="0.8273" style="stop-color:#1976D2"/>
    </linearGradient>
    <polygon points="112.09,124.01 15.91,124.01 11.91,51.14 116.09,51.14 " style="fill:url(#SVGID_4_);"/>
    <g style="opacity:0.2;">
      <path d="M112.92,54.14l-3.67,66.88H18.75l-3.67-66.88H112.92 M116.09,51.14H11.91l4,72.88h96.19 L116.09,51.14L116.09,51.14z" style="fill:#424242;"/>
    </g>
    <path d="M121.89,59.42H6.9c-0.37,0-0.7-0.23-0.81-0.56l0,0c-2.57-7.47-2.5-15.55,0.19-22.98l0,0h115.61v0 c2.61,7.44,2.68,15.49,0.19,22.98L121.89,59.42z" style="fill:#2196F3;"/>
    <g style="opacity:0.2;">
      <path d="M119.69,38.88c1.62,5.77,1.62,11.77,0,17.54H8.46c-1.66-5.72-1.66-11.83,0-17.54H119.69 M121.89,35.88H6.28c-2.7,7.43-2.76,15.51-0.19,22.98v0c0.12,0.34,0.44,0.56,0.81,0.56h114.99l0.19-0.57 C124.57,51.37,124.5,43.32,121.89,35.88L121.89,35.88z" style="fill:#424242;"/>
    </g>
    <linearGradient id="SVGID_5_" gradientUnits="userSpaceOnUse" x1="50.8613" x2="83.1164" y1="58.2637" y2="111.0447">
      <stop offset="0.252" style="stop-color:#FFEB3B"/>
      <stop offset="1" style="stop-color:#FBC02D"/>
    </linearGradient>
    <rect height="88.46" style="fill:url(#SVGID_5_);" width="26" x="51.21" y="35.88"/>
    <g style="opacity:0.2;">
      <path d="M74.21,38.88v82.46h-20V38.88H74.21 M77.21,35.88h-26v88.46h26V35.88L77.21,35.88z" style="fill:#424242;"/>
    </g>
  </g>
  <g id="Layer_2_x5F_复制" style="display:none;">
    <g style="display:inline;opacity:0.3;">
      <g style="opacity:0.6;">
        <circle cx="64" cy="64" r="28" style="opacity:0.61;fill:none;stroke:#000000;stroke-width:0.2625;stroke-miterlimit:10;"/>
        <line style="opacity:0.61;fill:none;stroke:#000000;stroke-width:0.25;stroke-miterlimit:10;" x1="84" x2="84" y1="0" y2="128"/>
        <line style="opacity:0.61;fill:none;stroke:#000000;stroke-width:0.25;stroke-miterlimit:10;" x1="44" x2="44" y1="0" y2="128"/>
        <line style="opacity:0.61;fill:none;stroke:#000000;stroke-width:0.25;stroke-miterlimit:10;" x1="64" x2="64" y1="0" y2="128"/>
        <line style="opacity:0.61;fill:none;stroke:#000000;stroke-width:0.25;stroke-miterlimit:10;" x1="128" x2="0" y1="64" y2="64"/>
        <line style="opacity:0.61;fill:none;stroke:#000000;stroke-width:0.25;stroke-miterlimit:10;" x1="128" x2="0" y1="44" y2="44"/>
        <line style="opacity:0.61;fill:none;stroke:#000000;stroke-width:0.25;stroke-miterlimit:10;" x1="128" x2="0" y1="83.75" y2="83.75"/>
        <line style="opacity:0.61;fill:none;stroke:#000000;stroke-width:0.25;stroke-miterlimit:10;" x1="128" x2="0" y1="128" y2="0"/>
        <line style="opacity:0.61;fill:none;stroke:#000000;stroke-width:0.25;stroke-miterlimit:10;" x1="0" x2="128" y1="128" y2="0"/>
        <g style="opacity:0.61;">
          <path d="M64,4.26c32.94,0,59.74,26.8,59.74,59.74S96.94,123.74,64,123.74S4.26,96.94,4.26,64S31.06,4.26,64,4.26 M64,4 C30.86,4,4,30.86,4,64c0,33.14,26.86,60,60,60c33.14,0,60-26.86,60-60C124,30.86,97.14,4,64,4L64,4z"/>
        </g>
        <path d="M107.97,115.97H20.03 c-4.42,0-8.03-3.61-8.03-8.03V20.03c0-4.42,3.61-8.03,8.03-8.03h87.94c4.42,0,8.03,3.61,8.03,8.03v87.91 C116,112.36,112.39,115.97,107.97,115.97z" style="opacity:0.61;fill:none;stroke:#000000;stroke-width:0.2578;stroke-miterlimit:10;"/>
        <path d="M99.75,124H28 c-4.4,0-8-3.6-8-8V12c0-4.4,3.6-8,8-8h71.75c4.4,0,8,3.6,8,8v104C107.75,120.4,104.15,124,99.75,124z" style="opacity:0.61;fill:none;stroke:#000000;stroke-width:0.2567;stroke-miterlimit:10;"/>
        <path d="M113.77,108H14.23 C8.6,108,4,103.4,4,97.77V30.28c0-5.63,4.6-10.23,10.23-10.23h99.54c5.63,0,10.23,4.6,10.23,10.23v67.48 C124,103.4,119.4,108,113.77,108z" style="opacity:0.61;fill:none;stroke:#000000;stroke-width:0.2627;stroke-miterlimit:10;"/>
      </g>
      <g>
        <g style="opacity:0.2;">
          <defs>
            <rect id="SVGID_2_" height="128" style="opacity:0.2;" width="128"/>
          </defs>
          <clipPath id="SVGID_6_">
            <use style="overflow:visible;" xlink:href="#SVGID_2_"/>
          </clipPath>
          <g style="clip-path:url(#SVGID_6_);">
            <g>
              <line style="fill:none;stroke:#000000;stroke-width:0.25;stroke-miterlimit:10;" x1="-28" x2="-28" y1="160" y2="-32"/>
              <line style="fill:none;stroke:#000000;stroke-width:0.25;stroke-miterlimit:10;" x1="-24" x2="-24" y1="160" y2="-32"/>
              <line style="fill:none;stroke:#000000;stroke-width:0.25;stroke-miterlimit:10;" x1="-20" x2="-20" y1="160" y2="-32"/>
              <line style="fill:none;stroke:#000000;stroke-width:0.25;stroke-miterlimit:10;" x1="-16" x2="-16" y1="160" y2="-32"/>
              <line style="fill:none;stroke:#000000;stroke-width:0.25;stroke-miterlimit:10;" x1="-12" x2="-12" y1="160" y2="-32"/>
              <line style="fill:none;stroke:#000000;stroke-width:0.25;stroke-miterlimit:10;" x1="-8" x2="-8" y1="160" y2="-32"/>
              <line style="fill:none;stroke:#000000;stroke-width:0.25;stroke-miterlimit:10;" x1="-4" x2="-4" y1="160" y2="-32"/>
              <line style="fill:none;stroke:#000000;stroke-width:0.25;stroke-miterlimit:10;" x1="0" x2="0" y1="160" y2="-32"/>
              <line style="fill:none;stroke:#000000;stroke-width:0.25;stroke-miterlimit:10;" x1="4" x2="4" y1="160" y2="-32"/>
              <line style="fill:none;stroke:#000000;stroke-width:0.25;stroke-miterlimit:10;" x1="8" x2="8" y1="160" y2="-32"/>
              <line style="fill:none;stroke:#000000;stroke-width:0.25;stroke-miterlimit:10;" x1="12" x2="12" y1="160" y2="-32"/>
              <line style="fill:none;stroke:#000000;stroke-width:0.25;stroke-miterlimit:10;" x1="16" x2="16" y1="160" y2="-32"/>
              <line style="fill:none;stroke:#000000;stroke-width:0.25;stroke-miterlimit:10;" x1="20" x2="20" y1="160" y2="-32"/>
              <line style="fill:none;stroke:#000000;stroke-width:0.25;stroke-miterlimit:10;" x1="24" x2="24" y1="160" y2="-32"/>
              <line style="fill:none;stroke:#000000;stroke-width:0.25;stroke-miterlimit:10;" x1="28" x2="28" y1="160" y2="-32"/>
              <line style="fill:none;stroke:#000000;stroke-width:0.25;stroke-miterlimit:10;" x1="32" x2="32" y1="160" y2="-32"/>
              <line style="fill:none;stroke:#000000;stroke-width:0.25;stroke-miterlimit:10;" x1="36" x2="36" y1="160" y2="-32"/>
              <line style="fill:none;stroke:#000000;stroke-width:0.25;stroke-miterlimit:10;" x1="40" x2="40" y1="160" y2="-32"/>
              <line style="fill:none;stroke:#000000;stroke-width:0.25;stroke-miterlimit:10;" x1="44" x2="44" y1="160" y2="-32"/>
              <line style="fill:none;stroke:#000000;stroke-width:0.25;stroke-miterlimit:10;" x1="48" x2="48" y1="160" y2="-32"/>
              <line style="fill:none;stroke:#000000;stroke-width:0.25;stroke-miterlimit:10;" x1="52" x2="52" y1="160" y2="-32"/>
              <line style="fill:none;stroke:#000000;stroke-width:0.25;stroke-miterlimit:10;" x1="56" x2="56" y1="160" y2="-32"/>
              <line style="fill:none;stroke:#000000;stroke-width:0.25;stroke-miterlimit:10;" x1="60" x2="60" y1="160" y2="-32"/>
              <line style="fill:none;stroke:#000000;stroke-width:0.25;stroke-miterlimit:10;" x1="64" x2="64" y1="160" y2="-32"/>
              <line style="fill:none;stroke:#000000;stroke-width:0.25;stroke-miterlimit:10;" x1="68" x2="68" y1="160" y2="-32"/>
              <line style="fill:none;stroke:#000000;stroke-width:0.25;stroke-miterlimit:10;" x1="72" x2="72" y1="160" y2="-32"/>
              <line style="fill:none;stroke:#000000;stroke-width:0.25;stroke-miterlimit:10;" x1="76" x2="76" y1="160" y2="-32"/>
              <line style="fill:none;stroke:#000000;stroke-width:0.25;stroke-miterlimit:10;" x1="80" x2="80" y1="160" y2="-32"/>
              <line style="fill:none;stroke:#000000;stroke-width:0.25;stroke-miterlimit:10;" x1="84" x2="84" y1="160" y2="-32"/>
              <line style="fill:none;stroke:#000000;stroke-width:0.25;stroke-miterlimit:10;" x1="88" x2="88" y1="160" y2="-32"/>
              <line style="fill:none;stroke:#000000;stroke-width:0.25;stroke-miterlimit:10;" x1="92" x2="92" y1="160" y2="-32"/>
              <line style="fill:none;stroke:#000000;stroke-width:0.25;stroke-miterlimit:10;" x1="96" x2="96" y1="160" y2="-32"/>
              <line style="fill:none;stroke:#000000;stroke-width:0.25;stroke-miterlimit:10;" x1="100" x2="100" y1="160" y2="-32"/>
              <line style="fill:none;stroke:#000000;stroke-width:0.25;stroke-miterlimit:10;" x1="104" x2="104" y1="160" y2="-32"/>
              <line style="fill:none;stroke:#000000;stroke-width:0.25;stroke-miterlimit:10;" x1="108" x2="108" y1="160" y2="-32"/>
              <line style="fill:none;stroke:#000000;stroke-width:0.25;stroke-miterlimit:10;" x1="112" x2="112" y1="160" y2="-32"/>
              <line style="fill:none;stroke:#000000;stroke-width:0.25;stroke-miterlimit:10;" x1="116" x2="116" y1="160" y2="-32"/>
              <line style="fill:none;stroke:#000000;stroke-width:0.25;stroke-miterlimit:10;" x1="120" x2="120" y1="160" y2="-32"/>
              <line style="fill:none;stroke:#000000;stroke-width:0.25;stroke-miterlimit:10;" x1="124" x2="124" y1="160" y2="-32"/>
              <line style="fill:none;stroke:#000000;stroke-width:0.25;stroke-miterlimit:10;" x1="128" x2="128" y1="160" y2="-32"/>
              <line style="fill:none;stroke:#000000;stroke-width:0.25;stroke-miterlimit:10;" x1="132" x2="132" y1="160" y2="-32"/>
              <line style="fill:none;stroke:#000000;stroke-width:0.25;stroke-miterlimit:10;" x1="136" x2="136" y1="160" y2="-32"/>
              <line style="fill:none;stroke:#000000;stroke-width:0.25;stroke-miterlimit:10;" x1="137" x2="137" y1="166.05" y2="-25.95"/>
              <line style="fill:none;stroke:#000000;stroke-width:0.25;stroke-miterlimit:10;" x1="144" x2="144" y1="160" y2="-32"/>
              <line style="fill:none;stroke:#000000;stroke-width:0.25;stroke-miterlimit:10;" x1="148" x2="148" y1="160" y2="-32"/>
              <line style="fill:none;stroke:#000000;stroke-width:0.25;stroke-miterlimit:10;" x1="152" x2="152" y1="160" y2="-32"/>
              <line style="fill:none;stroke:#000000;stroke-width:0.25;stroke-miterlimit:10;" x1="156" x2="156" y1="160" y2="-32"/>
            </g>
            <g>
              <line style="fill:none;stroke:#000000;stroke-width:0.25;stroke-miterlimit:10;" x1="-32" x2="160" y1="-28" y2="-28"/>
              <line style="fill:none;stroke:#000000;stroke-width:0.25;stroke-miterlimit:10;" x1="-32" x2="160" y1="-24" y2="-24"/>
              <line style="fill:none;stroke:#000000;stroke-width:0.25;stroke-miterlimit:10;" x1="-32" x2="160" y1="-20" y2="-20"/>
              <line style="fill:none;stroke:#000000;stroke-width:0.25;stroke-miterlimit:10;" x1="-32" x2="160" y1="-16" y2="-16"/>
              <line style="fill:none;stroke:#000000;stroke-width:0.25;stroke-miterlimit:10;" x1="-32" x2="160" y1="-12" y2="-12"/>
              <line style="fill:none;stroke:#000000;stroke-width:0.25;stroke-miterlimit:10;" x1="-32" x2="160" y1="-8" y2="-8"/>
              <line style="fill:none;stroke:#000000;stroke-width:0.25;stroke-miterlimit:10;" x1="-32" x2="160" y1="-4" y2="-4"/>
              <line style="fill:none;stroke:#000000;stroke-width:0.25;stroke-miterlimit:10;" x1="-32" x2="160" y1="0" y2="0"/>
              <line style="fill:none;stroke:#000000;stroke-width:0.25;stroke-miterlimit:10;" x1="-32" x2="160" y1="4" y2="4"/>
              <line style="fill:none;stroke:#000000;stroke-width:0.25;stroke-miterlimit:10;" x1="-32" x2="160" y1="8" y2="8"/>
              <line style="fill:none;stroke:#000000;stroke-width:0.25;stroke-miterlimit:10;" x1="-32" x2="160" y1="12" y2="12"/>
              <line style="fill:none;stroke:#000000;stroke-width:0.25;stroke-miterlimit:10;" x1="-32" x2="160" y1="16" y2="16"/>
              <line style="fill:none;stroke:#000000;stroke-width:0.25;stroke-miterlimit:10;" x1="-32" x2="160" y1="20" y2="20"/>
              <line style="fill:none;stroke:#000000;stroke-width:0.25;stroke-miterlimit:10;" x1="-32" x2="160" y1="24" y2="24"/>
              <line style="fill:none;stroke:#000000;stroke-width:0.25;stroke-miterlimit:10;" x1="-32" x2="160" y1="28" y2="28"/>
              <line style="fill:none;stroke:#000000;stroke-width:0.25;stroke-miterlimit:10;" x1="-32" x2="160" y1="32" y2="32"/>
              <line style="fill:none;stroke:#000000;stroke-width:0.25;stroke-miterlimit:10;" x1="-32" x2="160" y1="36" y2="36"/>
              <line style="fill:none;stroke:#000000;stroke-width:0.25;stroke-miterlimit:10;" x1="-32" x2="160" y1="40" y2="40"/>
              <line style="fill:none;stroke:#000000;stroke-width:0.25;stroke-miterlimit:10;" x1="-32" x2="160" y1="44" y2="44"/>
              <line style="fill:none;stroke:#000000;stroke-width:0.25;stroke-miterlimit:10;" x1="-32" x2="160" y1="48" y2="48"/>
              <line style="fill:none;stroke:#000000;stroke-width:0.25;stroke-miterlimit:10;" x1="-32" x2="160" y1="52" y2="52"/>
              <line style="fill:none;stroke:#000000;stroke-width:0.25;stroke-miterlimit:10;" x1="-32" x2="160" y1="56" y2="56"/>
              <line style="fill:none;stroke:#000000;stroke-width:0.25;stroke-miterlimit:10;" x1="-32" x2="160" y1="60" y2="60"/>
              <line style="fill:none;stroke:#000000;stroke-width:0.25;stroke-miterlimit:10;" x1="-32" x2="160" y1="64" y2="64"/>
              <line style="fill:none;stroke:#000000;stroke-width:0.25;stroke-miterlimit:10;" x1="-32" x2="160" y1="68" y2="68"/>
              <line style="fill:none;stroke:#000000;stroke-width:0.25;stroke-miterlimit:10;" x1="-32" x2="160" y1="72" y2="72"/>
              <line style="fill:none;stroke:#000000;stroke-width:0.25;stroke-miterlimit:10;" x1="-32" x2="160" y1="76" y2="76"/>
              <line style="fill:none;stroke:#000000;stroke-width:0.25;stroke-miterlimit:10;" x1="-32" x2="160" y1="80" y2="80"/>
              <line style="fill:none;stroke:#000000;stroke-width:0.25;stroke-miterlimit:10;" x1="-32" x2="160" y1="84" y2="84"/>
              <line style="fill:none;stroke:#000000;stroke-width:0.25;stroke-miterlimit:10;" x1="-32" x2="160" y1="88" y2="88"/>
              <line style="fill:none;stroke:#000000;stroke-width:0.25;stroke-miterlimit:10;" x1="-32" x2="160" y1="92" y2="92"/>
              <line style="fill:none;stroke:#000000;stroke-width:0.25;stroke-miterlimit:10;" x1="-32" x2="160" y1="96" y2="96"/>
              <line style="fill:none;stroke:#000000;stroke-width:0.25;stroke-miterlimit:10;" x1="-32" x2="160" y1="100" y2="100"/>
              <line style="fill:none;stroke:#000000;stroke-width:0.25;stroke-miterlimit:10;" x1="-32" x2="160" y1="104" y2="104"/>
              <line style="fill:none;stroke:#000000;stroke-width:0.25;stroke-miterlimit:10;" x1="-32" x2="160" y1="108" y2="108"/>
              <line style="fill:none;stroke:#000000;stroke-width:0.25;stroke-miterlimit:10;" x1="-32" x2="160" y1="112" y2="112"/>
              <line style="fill:none;stroke:#000000;stroke-width:0.25;stroke-miterlimit:10;" x1="-32" x2="160" y1="116" y2="116"/>
              <line style="fill:none;stroke:#000000;stroke-width:0.25;stroke-miterlimit:10;" x1="-32" x2="160" y1="120" y2="120"/>
              <line style="fill:none;stroke:#000000;stroke-width:0.25;stroke-miterlimit:10;" x1="-32" x2="160" y1="124" y2="124"/>
              <line style="fill:none;stroke:#000000;stroke-width:0.25;stroke-miterlimit:10;" x1="-32" x2="160" y1="128" y2="128"/>
              <line style="fill:none;stroke:#000000;stroke-width:0.25;stroke-miterlimit:10;" x1="-32" x2="160" y1="132" y2="132"/>
              <line style="fill:none;stroke:#000000;stroke-width:0.25;stroke-miterlimit:10;" x1="-32" x2="160" y1="136" y2="136"/>
              <line style="fill:none;stroke:#000000;stroke-width:0.25;stroke-miterlimit:10;" x1="-32" x2="160" y1="140" y2="140"/>
              <line style="fill:none;stroke:#000000;stroke-width:0.25;stroke-miterlimit:10;" x1="-32" x2="160" y1="144" y2="144"/>
              <line style="fill:none;stroke:#000000;stroke-width:0.25;stroke-miterlimit:10;" x1="-32" x2="160" y1="148" y2="148"/>
              <line style="fill:none;stroke:#000000;stroke-width:0.25;stroke-miterlimit:10;" x1="-32" x2="160" y1="152" y2="152"/>
              <line style="fill:none;stroke:#000000;stroke-width:0.25;stroke-miterlimit:10;" x1="-32" x2="160" y1="156" y2="156"/>
            </g>
            <path d="M159.75-31.75v191.5h-191.5v-191.5H159.75 M160-32H-32v192h192V-32L160-32z"/>
          </g>
        </g>
        <g>
          <rect height="128" style="opacity:0.3;fill:#F44336;" width="4"/>
          <rect height="128" style="opacity:0.3;fill:#F44336;" width="4" x="124"/>
          <rect height="120" style="opacity:0.3;fill:#F44336;" transform="matrix(-1.836970e-16 1 -1 -1.836970e-16 66 -62)" width="4" x="62" y="-58"/>
          <rect height="120" style="opacity:0.3;fill:#F44336;" transform="matrix(-1.836970e-16 1 -1 -1.836970e-16 190 62)" width="4" x="62" y="66"/>
        </g>
      </g>
    </g>
  </g>
</svg>
